X: 753
T: Ferahfezâ Seyir
C: Şefik Gürmeriç
O: Turkey
F: http://compmusic.upf.edu/node/140
N: ferahfeza--seyir--sofyan--2--sefik_gurmeric
N: makam= ferahfeza
N: form= seyir
N: usul= sofyan = 4/4
M: 4/4
L: 1/16
K: C _B   
Q: 1/4=60
%%MIDI tuningsystem comma53
f6e2 d4 e4  | f6g2 a4 g2f2  | c'2b2 a2g2 g2f2 f2e2  | \
w:   |   |   | 
f8 z4 e2f2  | 
w:   | 
g2a4g2 g2f2 f2e2  | e2d2 d2^c2 d4 a4  | \
w:   |   | 
g2f2 e2d2 d2c2 c2_1/4B2  | 
w:   | 
c8 f6e2  | e2d2 d2c2 c2_1/4B2 c2de  | \
w:   |   | 
d2c2 B2A2 A4 A2B2  | c2_e2 d2c2 B2A2 G4  | 
w:   |   | 
c4 B2A2 A8  | z4 A2B2 c2d4c2  | c2B2 B2A2 B3A G4  | \
w:   |   |   | 
z4 c2d2 c4 d4  | 
w:   | 
c2B2 A2G2 F2E2 F4  | E2F2 G2B2 A4 G4  | \
w:   |   | 
G2F2 F2E2 D4 E2F2  | E2D2 ^C2D2 C2D2 EFED  | 
w:   |   | 
D16  | |


